X:4
T:March,A (not really!) JClw.04
M:9/8
L:1/8
Q:1/4=120
S:J.Clews MS,Stoke-upon-Tern,Shrops.1832
N:Written in 6/8 but appears to be in 9/8 or 3/2.
N:Possibly author not familiar
N:with 9/8 and attempted to make tune fit 6/8. This  therefore
N:turns out to be a lovely slip-jig. In bar 3 notes EGE precede C2C in MS
N:- a probable error which I have taken the liberty of editing"NeilB.
A:N. Shropshire
Z:Neil Brookes 2006
K:G

G2G BAG BdB|G2| FED DEF G3:|!
|:G2Gg2d BdB|G2G g2d B/2c/2dB|A2e e2c e2c|d2gf/2g/2af g3:|!
|:gec BAB GAB|gec BAB GAB|c2e e2c e2c|d2g f/2g/2af g3:|
W:* dotted in MS in effort to fit into 6/8

